X: 575
T: Farmer’s Jamboree
B: good tune book
B: tunes
M:6/8
R: jig
Q: 3/8=100
K:Gmajor
V:1 
|:Bc|d2 d c2 A|G2 B D2 B|BG/A/B dcB|A3- ABc|
 d^cd =cAF|G2 B D2 g|fed cBA|G3- G:|
 |:Bc|d2 B g2 f|e2 c a2 g|f2 A Ace|d3- dBc|
 d2 B g2 f|e2 c a2 g|fed cBA|G3- G:|
% abcbook-tune_id 63dce357d79ce04b3b13ef64
% abcbook-tune_composer_id 
% abcbook-link-0 https://www.youtube.com/watch?v=Qeys3MXlOUk
% abcbook-boost 0
% abcbook-difficulty 0
% abcbook-tags good tune book
% abcbook-tablature 
% abcbook-transpose 
% abcbook-tuning 
% abcbook-lastupdated 1675428192608
% abcbook-soundfonts 
% abcbook-repeats 1


